X:1
T:Title
%%score 1 2 3
L:1/8
M:4/2
K:F
V:1 treble nm="Part_1"
V:2 bass nm="Part_2"
V:3 bass nm="Part_3"
V:1
 A8 A4 ^F4 | G4 A4 B4 A2 G2 | A6 A2 D8 | z16 | z2 DE ^FGAF G4 B4- | B4 A4 G8 | A8 z4 D4 | %7
 D4 ^C4 D4 E4 | F4 E2 D2 E6 E2 | D8 z2 DE ^FGAF | G4 A6 G2 G4 | A8 z2 FG ABcA | =B4 c8 _B4 | A16 | %14
 A8 z8 | z8 z4 G4- | G2 FD F2 E2 D8 | C8 z8 | z2 F2 A2 =B2 c2 cC E2 F2 | G2 A2 B2 AG A4 A2 c2- | %20
 c2 BG B2 A2 G8 | F2 D2 F2 G2 A2 AF A2 B2 | c2 cC E2 ^F2 G2 E2 D4 |[M:6/2] C16 z8 | z8 G8 ^F8 | %25
 G4 A4 B4 G4 A8 | D8 D8 ^C8 | D4 E4 F4 D4 E8 | F16 z8 | z8 z8 c8 | B12 A4 G8 | A16 F8 | G16 G8 | %33
 F12 E4 D8 | E16 ^F8 |[M:4/2] G8 F2 E2 F2 G2 | A6 GF E6 E2 | D8 z8 | z16 | z16 | z16 | z16 | z16 | %43
 z4 G4 A4 =B4 | c4 z2 c2 BAGF E4 | F4 z2 C2 D4 E4 | F2 F2 EDCB, A,2 A,A GFED | %47
 C2 Cc BAGF E2 F2 E4 | D8 z4 F4 | F12 E2 F2 | D8 C8 | z4 c4 c8- | c4 B2 c2 A8 | B8 z2 A2 A4- | %54
 A2 GA F4 E2 F2 G2 A2 | =B2 c4 B2 c2 c2 c4- | c2 Bc A4 G2 G2 G4- | G2 FG E4 D2 E2 F2 G2 | %58
 A2 B4 A2 B8 | z8 z2 c2 c4- | c4 B2 c2 A8 | G8 z4 z2 G2 | G12 F2 G2 | E8 D4 E4 | ^F4 G4 A4 F2 F2 | %65
 G4 A4 B8 | A16 |] %67
V:2
 z16 | z16 | D,8 D,4 =B,,4 | C,4 D,4 _E,4 D,2 C,2 | D,6 D,2 G,,8 | z16 | z4 A,,4 A,,4 ^F,,4 | %7
 G,,4 A,,4 B,,4 A,,2 G,,2 | A,,12 A,,4 | D,2 D,E, ^F,G,A,F, G,4 D,4- | D,4 C,4 B,,8 | %11
 A,,2 A,,B,, ^C,D,E,(C, D,4) F,4- | F,4 _E,4 D,4 G,4- | G,4 F,4 E,8 | D,4 D,6 C,A,, C,2 B,,2 | %15
 A,,8 G,,8 | z8 z2 B,,2 D,2 E,2 | F,2 F,F,, A,,2 B,,2 C,2 D,2 _E,2 D,C, | D,8 C,8 | %19
 z4 G,6 F,D, F,2 _E,2 | D,8 G,2 G,,2 B,,2 C,2 | D,2 D,B,, D,2 E,2 F,2 F,D, F,2 G,2 | A,4 A,4 G,8 | %23
[M:6/2] C,8 C,8 =B,,8 | C,4 D,4 _E,4 C,4 D,8 | G,,8 G,8 ^F,8 | G,4 A,4 B,4 G,4 A,8 | D,16 C,8 | %28
 B,,12 A,,4 G,,8 | A,,16 F,,8 | G,,16 G,8 | F,12 E,4 D,8 | _E,16 C,8 | D,16 =B,,8 | %34
 C,12 B,,4 A,,8 |[M:4/2] B,,2 A,,2 B,,2 C,2 D,6 C,B,, | A,,12 A,,4 | D,4 D,4 G,4 _E,4 | %38
 D,4 =B,,4 C,6 _B,,2 | A,,8 G,,4 G,2 E,2 | F,G,A,B, C2 C,2 D,E,F,G, A,2 A,,2 | %41
 B,,C,D,E, F,2 F,,2 G,,A,,B,,C, D,E,F,G, | A,2 G,F, G,2 F,E, D,2 C,B,, C,2 D,2 | G,,8 z8 | z16 | %45
 z16 | z16 | z16 | z4 B,,4 B,,8- | B,,4 A,,2 B,,2 G,,8- | G,,8 C,4 F,4 | F,12 E,2 F,2 | D,16 | %53
 G,,2 G,2 G,6 F,G, E,4 | D,2 E,2 F,2 G,2 A,4 E,2 F,2 | G,2 E,2 G,4 C,8 | z2 F,2 F,6 E,F, D,4 | %57
 C,2 D,2 E,2 F,2 G,4 D,2 E,2 | F,2 D,2 F,4 B,,2 B,2 B,4- | B,4 A,2 B,2 G,8 | F,4 G,4 A,4 B,4 | %61
 C4 C,2 C,2 C,8- | C,4 =B,,2 C,2 A,,8 | G,,4 A,,4 =B,,4 C,4 | D,4 =B,,2 B,,2 C,4 D,4 | G,,16 | %66
 D,16 |] %67
V:3
 D,8 A,,4 D,4 | B,,4 A,,4 G,,8 | D,8 D,4 =B,,4 | C,4 D,4 _E,4 D,2 C,2 | D,8 G,,4 G,4 | %5
 E,4 F,4 C,4 B,,4 | A,,8 A,,4 ^F,,4 | G,,4 A,,4 B,,4 A,,2 G,,2 | A,,16 | D,8 G,,4 D,4- | %10
 D,4 C,4 B,,8 | A,,8 D,4 F,4- | F,4 _E,4 D,4 G,,4 | A,,16 | D,4 D,6 C,A,, C,2 B,,2 | A,,8 G,,8 | %16
 D,6 C,2 B,,8 | F,,4 A,,2 B,,2 C,2 D,2 _E,2 D,C, | D,8 C,8 | G,,4 G,6 F,D, F,2 _E,2 | %20
 D,8 G,2 G,,2 B,,2 C,2 | D,2 D,B,, D,2 E,2 F,2 F,D, F,2 G,2 | A,8 G,8 |[M:6/2] C,16 =B,,8 | %24
 C,16 D,8 | G,16 ^F,8 | G,16 A,8 | D,16 C,8 | B,,12 A,,4 G,,8 | A,,16 F,,8 | G,,16 G,8 | %31
 F,12 E,4 D,8 | _E,16 C,8 | D,16 D,8 | C,12 B,,4 A,,8 |[M:4/2] G,,2 A,,2 B,,2 C,2 D,6 C,B,, | %36
 A,,16 | D,8 G,4 _E,4 | D,4 =B,,4 C,6 _B,,2 | A,,8 G,,4 G,2 E,2 | F,4 C,4 D,4 A,,4 | %41
 B,,4 F,,4 G,,4 D,4 | A,,2 D,2 G,,4 D,2 B,,2 C,2 D,2 | G,,4 G,4 ^F,4 G,4 | C,4 A,,4 B,,4 C,4 | %45
 F,,4 C,4 =B,,4 C,4 | F,,4 C,4 D,4 E,4 | F,4 G,4 A,8 | D,4 B,,4 B,,8- | B,,4 A,,2 B,,2 G,,8- | %50
 G,,8 C,4 F,4 | F,12 E,2 F,2 | D,16 | G,,8 A,,8 | D,2 E,2 F,2 G,2 A,4 E,2 F,2 | G,2 E,2 G,4 C,8 | %56
 F,,8 G,,8 | C,2 D,2 E,2 F,2 G,4 D,2 E,2 | F,2 D,2 F,4 B,,8 | C,16 | F,4 G,4 A,4 B,4 | %61
 C4 C,4 C,8- | C,4 =B,,2 C,2 A,,8 | G,,4 A,,4 =B,,4 C,4 | D,4 =B,,4 C,4 D,4 | G,,16 | D,16 |] %67

